outline/svg/close-square-outline.svg

<svg xmlns="http://www.w3.org/2000/svg" viewBox="0 0 24 24"><g data-name="Layer 2"><g data-name="close-square"><rect width="24" height="24" opacity="0"/><path d="M18 3H6a3 3 0 0 0-3 3v12a3 3 0 0 0 3 3h12a3 3 0 0 0 3-3V6a3 3 0 0 0-3-3zm1 15a1 1 0 0 1-1 1H6a1 1 0 0 1-1-1V6a1 1 0 0 1 1-1h12a1 1 0 0 1 1 1z"/><path d="M14.71 9.29a1 1 0 0 0-1.42 0L12 10.59l-1.29-1.3a1 1 0 0 0-1.42 1.42l1.3 1.29-1.3 1.29a1 1 0 0 0 0 1.42 1 1 0 0 0 1.42 0l1.29-1.3 1.29 1.3a1 1 0 0 0 1.42 0 1 1 0 0 0 0-1.42L13.41 12l1.3-1.29a1 1 0 0 0 0-1.42z"/></g></g></svg>

<svg xmlns="http://www.w3.org/2000/svg" viewBox="0 0 24 24"><defs><style>.cls-1{fill:#fff;opacity:0;}.cls-2{fill:#231f20;}</style></defs><title>close-square</title><g id="Layer_2" data-name="Layer 2"><g id="close-square"><g id="close-square-2" data-name="close-square"><rect class="cls-1" width="24" height="24"/><path class="cls-2" d="M18,3H6A3,3,0,0,0,3,6V18a3,3,0,0,0,3,3H18a3,3,0,0,0,3-3V6A3,3,0,0,0,18,3Zm1,15a1,1,0,0,1-1,1H6a1,1,0,0,1-1-1V6A1,1,0,0,1,6,5H18a1,1,0,0,1,1,1Z"/><path class="cls-2" d="M14.71,9.29a1,1,0,0,0-1.42,0L12,10.59l-1.29-1.3a1,1,0,0,0-1.42,1.42L10.59,12l-1.3,1.29a1,1,0,0,0,0,1.42,1,1,0,0,0,1.42,0L12,13.41l1.29,1.3a1,1,0,0,0,1.42,0,1,1,0,0,0,0-1.42L13.41,12l1.3-1.29A1,1,0,0,0,14.71,9.29Z"/></g></g></g></svg>
